folder-settings.svg

<svg fill="currentColor" viewBox="0 0 24 24"><path d="M4 4c-1.11 0-2 .89-2 2v12a2 2 0 0 0 2 2h16a2 2 0 0 0 2-2V8a2 2 0 0 0-2-2h-8l-2-2zm3 18v2h2v-2zm4 0v2h2v-2zm4 0v2h2v-2z"/></svg>

<svg  viewBox="0 0 24 24" fill="currentColor"><path  d="M4 4C2.89 4 2 4.89 2 6V18A2 2 0 0 0 4 20H20A2 2 0 0 0 22 18V8C22 6.89 21.1 6 20 6H12L10 4H4M7 22V24H9V22H7M11 22V24H13V22H11M15 22V24H17V22H15Z"/></svg>
